!!!OTL: Verschneiter Weg.
!!!ARE: Europa, Mitteleuropa, Deutschland
!!!SCT: A0164
!!!TXL: @@GMH
!!!YEM: Copyright 1995, estate of Helmut Schaffrath.
**kern	**text
*M4/2	*
*met(c|)	*
*clefC4	*
*k[b-]	*
*F:ion	*
=1	=1
!LO:TX:a:t=jon.	!
1ryy	.
2ryy	.
{2F	Es
=2	=2
2F	iſt
2G	ein
2A	ſchne
2B-	ge-
=3	=3
1c	-fal-
2c}	-len,
{2c	wann
=4	=4
2G	es
2A	iſt
2B-	noch
2c	nicht
=5	=5
*lig	*
2.A/	ʒeit:
4G	.
2F}	.
*Xlig	*
{2G	ich
=6	=6
2.G	wolt
4G	ʒu
2G	mei-
2A	-nem
=7	=7
2.B-	bů-
4B-	-len
2B-}	gan,
{2A	der
=8	=8
2G	weg
2F	war
2F	mir
2E	ver-
=9	=9
*lig	*
2.F	-ſchneit,
8EL	.
8DJ	.
2C}	.
*Xlig	*
{2G	ich
=10	=10
2.G	wolt
4G	ʒu
2G	mei-
2A	-nem
=11	=11
2.B-	bů-
4B-	-len
2B-}	gan,
{2A	der
=12	=12
2G	weg
2F	war
2F	mir
2E	ver-
=13	=13
0F/ll}	ſchneit.
==	==
!!!GTL: Liebeslieder
!!!AGN: Romanze, Ballade, Lied
!! 68 Lieder. Nuernberg bei Berg und Newber (c. 1542) No. 48.
!!    Grassliedlein 1535 No. 6.
!!!ONB: ESAC (Essen Associative Code) Database: ALTDEU
!!!AMT: simple quadruple
!!!AIN: vox
!!!EED: Helmut Schaffrath
!!!EEV: 1.0
!!!RDF**kern: l = terminal long
!!!AMD: Ionian
!!!URL-scan:https://rosdok.uni-rostock.de/mcrviewer/recordIdentifier/rosdok_ppn738218359/iview2/phys_0330.iview2?x=-2231.2783251231526&y=-1698.7014778330922&scale=0.2314709236031927&rotation=0&layout=singlePageLayout&logicalDiv=log_0009
!!!ENC: Anna Maria Matuszewska
!!!EEV: 2024/07/03
*-	*-
